assets/raw/rboardImeTester.svg

<svg width="288" height="288" viewBox="0 0 288 288" fill="none" xmlns="http://www.w3.org/2000/svg">
    <g clip-path="url(#clip0_80_167)">
        <g clip-path="url(#clip3_80_167)">
            <g clip-path="url(#clip6_80_167)">
                <rect x="-74" y="-70" width="432" height="432" fill="%tertiary_background%" />
                <path d="M191.833 194C196.344 194 200 190.418 200 186C200 181.582 196.344 178 191.833 178C187.323 178 183.667 181.582 183.667 186C183.667 190.418 187.323 194 191.833 194Z" fill="%desaturated_accent%" />
                <path d="M118.333 186C118.333 190.418 121.99 194 126.5 194H159.167C163.677 194 167.333 190.418 167.333 186C167.333 181.582 163.677 178 159.167 178H126.5C121.99 178 118.333 181.582 118.333 186Z" fill="%desaturated_accent%" />
                <path d="M151 162C155.51 162 159.167 158.418 159.167 154C159.167 149.582 155.51 146 151 146C146.49 146 142.833 149.582 142.833 154C142.833 158.418 146.49 162 151 162Z" fill="%desaturated_accent%" />
                <path d="M118.333 138C118.333 142.418 114.677 146 110.167 146C105.656 146 102 142.418 102 138C102 133.582 105.656 130 110.167 130C114.677 130 118.333 133.582 118.333 138Z" fill="%desaturated_accent%" />
                <path d="M175.5 130C180.01 130 183.667 126.418 183.667 122C183.667 117.582 180.01 114 175.5 114C170.99 114 167.333 117.582 167.333 122C167.333 126.418 170.99 130 175.5 130Z" fill="%desaturated_accent%" />
                <path d="M151 98C151 102.418 147.344 106 142.833 106C138.323 106 134.667 102.418 134.667 98C134.667 93.5817 138.323 90 142.833 90C147.344 90 151 93.5817 151 98Z" fill="%desaturated_accent%" />
            </g>
        </g>
    </g>
    <g clip-path="url(#clip7_80_167)">
        <path fill-rule="evenodd" clip-rule="evenodd" d="M362 -73.4619L-74.5 -72.9968V365.5L362 365.5V-73.4619ZM70.5321 206.667L89.2515 106.77H125.36V73.4707H158.639V106.77H194.748L213.468 206.667H70.5321Z" fill="%accent_background%" />
        <path fill-rule="evenodd" clip-rule="evenodd" d="M73.524 104.178C74.9862 96.4209 81.7956 90.8 89.7301 90.8H109.023V74.4H100.779C98.4428 74.4 96.4834 73.6128 94.9005 72.0384C93.3231 70.4695 92.5344 68.5233 92.5344 66.2C92.5344 63.8767 93.3231 61.9278 94.9005 60.3534C96.4834 58.7845 98.4428 58 100.779 58H183.221C185.557 58 187.514 58.7845 189.091 60.3534C190.674 61.9278 191.466 63.8767 191.466 66.2C191.466 68.5233 190.674 70.4695 189.091 72.0384C187.514 73.6128 185.557 74.4 183.221 74.4H174.977V90.8H194.27C202.204 90.8 209.014 96.4209 210.476 104.178L230.856 212.289C231.808 217.335 227.915 222 222.753 222H61.2468C56.0847 222 52.1924 217.335 53.1437 212.289L73.524 104.178ZM89.7301 107.2L71.1805 205.6H212.819L194.27 107.2H158.489V74.4H125.511V107.2H89.7301Z" fill="%desaturated_accent%" />
    </g>
</svg>

<svg xmlns="http://www.w3.org/2000/svg" width="288" height="288" fill="none">
    <g clip-path="url(#clip0_80_167)">
        <g clip-path="url(#clip3_80_167)">
            <g clip-path="url(#clip6_80_167)">
                <path fill="%tertiary_background%" d="M-74-70h432v432H-74z" />
                <path fill="%desaturated_accent%" d="M191.833 194c4.511 0 8.167-3.582 8.167-8s-3.656-8-8.167-8c-4.51 0-8.166 3.582-8.166 8s3.656 8 8.166 8ZM118.333 186c0 4.418 3.657 8 8.167 8h32.667c4.51 0 8.166-3.582 8.166-8s-3.656-8-8.166-8H126.5c-4.51 0-8.167 3.582-8.167 8ZM151 162c4.51 0 8.167-3.582 8.167-8s-3.657-8-8.167-8-8.167 3.582-8.167 8 3.657 8 8.167 8ZM118.333 138c0 4.418-3.656 8-8.166 8-4.511 0-8.167-3.582-8.167-8s3.656-8 8.167-8c4.51 0 8.166 3.582 8.166 8ZM175.5 130c4.51 0 8.167-3.582 8.167-8s-3.657-8-8.167-8-8.167 3.582-8.167 8 3.657 8 8.167 8ZM151 98c0 4.418-3.656 8-8.167 8-4.51 0-8.166-3.582-8.166-8s3.656-8 8.166-8c4.511 0 8.167 3.582 8.167 8Z" />
            </g>
        </g>
    </g>
    <g fill-rule="evenodd" clip-path="url(#clip7_80_167)" clip-rule="evenodd">
        <path fill="%accent_background%" d="m362-73.462-436.5.465V365.5H362V-73.462ZM70.532 206.667l18.72-99.897h36.108v-33.3h33.279v33.3h36.109l18.72 99.897H70.532Z" />
        <path fill="%desaturated_accent%" d="M73.524 104.178C74.986 96.421 81.796 90.8 89.73 90.8h19.293V74.4h-8.244c-2.336 0-4.296-.787-5.879-2.362-1.577-1.569-2.366-3.515-2.366-5.838s.79-4.272 2.366-5.847C96.483 58.784 98.444 58 100.78 58h82.442c2.336 0 4.293.785 5.87 2.353 1.583 1.575 2.375 3.524 2.375 5.847 0 2.323-.792 4.27-2.375 5.838-1.577 1.575-3.534 2.362-5.87 2.362h-8.244v16.4h19.293c7.934 0 14.744 5.62 16.206 13.378l20.38 108.111c.952 5.046-2.941 9.711-8.103 9.711H61.247c-5.162 0-9.055-4.665-8.103-9.711l20.38-108.111ZM89.73 107.2l-18.55 98.4H212.82l-18.549-98.4h-35.781V74.4h-32.978v32.8h-35.78Z" />
    </g>
</svg>
